X:15012
T:Schwitzemann
R:
O:Alsace - Elsass
A:Eckbolsheim
S:
B:La tradition Alsacienne.
Z:transcription (partition) : eric.forgeot@caramail.com
N:
M:2/4
L:1/8
Q:1/4=130
K:G
D | GB/A/ GD | GB/A/ GD | GB/A/ G/G/G/D/ | GB/A/ G2 |
Ac/B/ AD | Ac/B/ Ac/B/ | GGG G/G/ ||
K:C
Gee G/G/ | Gee G/G/ | Gd dB | c/B/c/d/e G/G/ | Gee G/G/ | Gee G/G/ | Gd ed | czcz ||
